X:156
T:Dick Gossip's
M:4/4
L:1/8
K:D
AG | F2AF GFED | F2AF GFED | EDEF GFED | EDEF GFED |
F2AF GFED | F2AF GFED | (3Bcdef gece | dfec d2 :|
ef | gBB2 gBaB | gBB2 gfed | cAeA fAed | (3cBAeA fAef |
gBB2 gBaB | gBB2 gfed | cdef gece | dfec d2 :|
